TO TREE :SIZE
  IF :SIZE < 5 [FORWARD :SIZE BACK :SIZE STOP]
  FORWARD :SIZE/3
  LEFT 30 TREE :SIZE*2/3 RIGHT 30
  FORWARD :SIZE/6
  RIGHT 25 TREE :SIZE/2 LEFT 25
  FORWARD :SIZE/3
  RIGHT 25 TREE :SIZE/2 LEFT 25
  FORWARD :SIZE/6
  BACK :SIZE
END

TREE 100
