to turtle_tracks_mouse
  setpos mousepos
end

cs
penUp
showTurtle
(mouseon [turtle_tracks_mouse pp setpensize 1 pd]
    [pu]
    [turtle_tracks_mouse pe setpensize 10 pd]
    [pu]
    [turtle_tracks_mouse])

wait 600

mouseoff
